X:1
T:Not I, but Christ
T:Albert Benamin Simpson
T:Not I, but Christ
T:Public Domain
T:Public Domain
T:Public Domain
C:Albert Benamin Simpson
Z:Public Domain
%%score ( 1 2 ) ( 3 4 )
L:1/8
M:4/4
K:Eb
V:1 treble 
V:2 treble 
V:3 bass 
V:4 bass 
V:1
 [B,E]4 [B,D]3 [CE] | [DF]6 [EG]2 | [EG]2 [DF]2 [DA]3 [EG] | [DB]4 F4 | [EB]4 [Ec]3 [EB] | %5
w: 1.~Not I, but|Christ, be|hon- ored, loved, ex-|alt- ed;|I, but Christ,|
w: 2.~Not I, but|Christ, to|gent- ly soothe in|sor- row,|I, but Christ,|
w: 3.~Christ, on- ly|Christ! no|i- dle words e’er|fall- ing,|on- ly Christ;|
w: 4.~Not I, but|Christ, my|ev- ery need sup-|ply- ing,|I, but Christ,|
w: 5.~Christ, on- ly|Christ, ere|long will fill my|vi- sion;|ry ex- cell-|
 [Ge]6 [EB]2 | [Ec]3 [EB] [FA]3 [EG] | [DF]6 z2 | [B,E]4 [B,D]3 [B,E] | [DF]6 [EG]2 | %10
w: be seen|be known, be heard;|Not|I, but Christ,|in ev-|
w: to wipe|the fall- ing tear;|Not|I, but Christ,|to lift|
w: no need-|less bust- ling sound;|Christ,|on- ly Christ;|no self|
w: my strength|and health to be;|Not|I, but Christ,|for bo-|
w: ing soon,|full soon I’ll see—|Christ,|on- ly Christ,|my ev-|
 [EG]2 [DF]2 [DA]3 [EG] | [DB]4 F4 | [EB]4 [Ec]3 [EB] | [Ee]6 E2 | [CA]3 [CF] [B,E]2 [B,D]2 | %15
w: ery look and act-|ion, Not|but Christ, in|ev- ery|and word. * *|
w: the wear- y bur-|den, Not|but Christ, to|hush a-|all fear. * *|
w: im- port- ant bear-|ing; Christ,|ly Christ; no|trace of|be found. O to|
w: dy, soul, and spir-|it, Christ,|ly Christ, here|and e-|nal- ly. * *|
w: ery wish ful- fill-|ing— Christ,|ly Christ, my|all in|to be. * *|
 [B,E]6 z2 ||"^Refrain" [EG]2 [EG][EG] [EG]2 [EF][EG] | [EA]3 [EG] [EG]4 | %18
w: |||
w: |||
w: be|saved from my- self, dear Lord,|O to be|
w: |||
w: |||
 [EB]2 [EB][EB] [EB]2 [EG]2 | [DF]6 z2 | [DA]2 [DA][EA] [FA]2 [EG]2 | [EA]2 [EB]2 [Ec]3 [DB] | %22
w: ||||
w: ||||
w: lost in Thee, O that|it|might be no more I,|But Christ, that lives|
w: ||||
w: ||||
 [Ee]3 E [DG]2 [DF]2 | E8 |] %24
w: ||
w: ||
w: in me. * *||
w: ||
w: ||
V:2
 x8 | x8 | x8 | x4 F4 | x8 | x8 | x8 | x8 | x8 | x8 | x8 | x4 F4 | x8 | x6 E2 | x8 | x8 || x8 | %17
w: |||Not||||||||I,||thought||||
w: |||Not||||||||I,||way||||
w: |||Christ,||||||||on-||“I”||||
w: |||Not||||||||on-||ter-||||
w: |||Glo-||||||||on-||all||||
 x8 | x8 | x8 | x8 | x8 | x3 E x4 | E8 |] %24
w: |||||||
w: |||||||
w: |||||||
w: |||||||
w: |||||||
V:3
 [E,G,]4 [E,F,]3 [E,G,] | [B,,B,]6 [E,B,]2 | [E,B,]2 [A,B,]2 [F,B,]3 [E,B,] | [B,,B,]4 [D,A,]4 | %4
 [E,G,]4 [E,A,]3 [E,G,] | [E,B,]6 [G,B,]2 | A,3 [G,B,] [D,B,]3 [E,B,] | [B,,B,]6 z2 | %8
 [E,G,]4 [E,F,]3 [E,G,] | [B,,B,]6 [E,B,]2 | [E,B,]2 [A,B,]2 [F,B,]3 [E,B,] | [B,,B,]4 [D,A,]4 | %12
 [E,G,]4 [E,A,]3 [E,G,] | (G,4 C2) [C,B,]2 | [F,,A,]3 [A,,A,] [B,,G,]2 (F,A,) | [E,G,]6 z2 || %16
 C2 CC C2 CC | _C3 B, B,4 | [G,B,]2 [G,B,][G,B,] [G,B,]2 [C,=A,]2 | [B,,B,]6 z2 | %20
 [B,,B,]2 [B,,B,][C,B,] [D,B,]2 (E,_D,) | [C,A,]2 [B,,G,]2 [A,,A,]3 [F,A,] | %22
 [E,G,]3 [C,=A,] [B,,B,]2 [B,,_A,]2 | [E,G,]8 |] %24
V:4
 x8 | x8 | x8 | x8 | x8 | x8 | A,3 x5 | x8 | x8 | x8 | x8 | x8 | x8 | C,6 x2 | x6 B,,2 | x8 || x8 | %17
 x8 | x8 | x8 | x6 B,2 | x8 | x8 | x8 |] %24

